symbols/landcover/vineyard.svg

<?xml version="1.0" encoding="UTF-8"?>
<svg version="1.1" width="32" height="32" viewBox="0 0 32 32" xmlns="http://www.w3.org/2000/svg">
  <path stroke-width="1" stroke="#759e6c" opacity=".38" d="
M0.5,0 v5 m0,6 v5 m0,5.5 v5
M4.5,5.5 v5 m0,5.5 v5 m0,6 v5
M8.5,0 v5 m0,6 v5 m0,5.5 v5
M12.5,5.5 v5 m0,5.5 v5 m0,6 v5
M16.5,0 v5 m0,6 v5 m0,5.5 v5
M20.5,5.5 v5 m0,5.5 v5 m0,6 v5
M24.5,0 v5 m0,6 v5 m0,5.5 v5
M28.5,5.5 v5 m0,5.5 v5 m0,6 v5"/>
</svg>

<?xml version="1.0" encoding="UTF-8"?>
<svg version="1.1" width="32" height="32" viewBox="0 0 32 32" xmlns="http://www.w3.org/2000/svg">
  <path stroke-width="1" stroke="#759e6c" opacity=".38" d="
M0.5,0 v5
M0.5,11 v5
M0.5,21.5 v5
M4.5,16 v5
M4.5,27 v5
M4.5,5.5 v5
M8.5,0 v5
M8.5,11 v5
M8.5,21.5 v5
M12.5,16 v5
M12.5,27 v5
M12.5,5.5 v5
M16.5,0 v5
M16.5,11 v5
M16.5,21.5 v5
M20.5,16 v5
M20.5,27 v5
M20.5,5.5 v5
M24.5,0 v5
M24.5,11 v5
M24.5,21.5 v5
M28.5,16 v5
M28.5,27 v5
M28.5,5.5 v5"/>
</svg>
